src/assets/duotone/SearchStatus1.svg

<svg width="24" height="24" viewBox="0 0 24 24"  xmlns="http://www.w3.org/2000/svg">
<path d="M14.5 10.75H8.5C8.09 10.75 7.75 10.41 7.75 10C7.75 9.59 8.09 9.25 8.5 9.25H14.5C14.91 9.25 15.25 9.59 15.25 10C15.25 10.41 14.91 10.75 14.5 10.75Z" />
<path d="M11.5 13.75H8.5C8.09 13.75 7.75 13.41 7.75 13C7.75 12.59 8.09 12.25 8.5 12.25H11.5C11.91 12.25 12.25 12.59 12.25 13C12.25 13.41 11.91 13.75 11.5 13.75Z" />
<path opacity="0.4" d="M11.5 21C16.7467 21 21 16.7467 21 11.5C21 6.25329 16.7467 2 11.5 2C6.25329 2 2 6.25329 2 11.5C2 16.7467 6.25329 21 11.5 21Z" />
<path d="M21.3001 22.0005C21.1201 22.0005 20.9401 21.9305 20.8101 21.8005L18.9501 19.9405C18.6801 19.6705 18.6801 19.2305 18.9501 18.9505C19.2201 18.6805 19.6601 18.6805 19.9401 18.9505L21.8001 20.8105C22.0701 21.0805 22.0701 21.5205 21.8001 21.8005C21.6601 21.9305 21.4801 22.0005 21.3001 22.0005Z" />
</svg>

<?xml version="1.0" encoding="UTF-8"?>
<svg width="24" height="24" viewBox="0 0 24 24" xmlns="http://www.w3.org/2000/svg">
 <path d="m14.5 10.75h-6c-0.41 0-0.75-0.34-0.75-0.75s0.34-0.75 0.75-0.75h6c0.41 0 0.75 0.34 0.75 0.75s-0.34 0.75-0.75 0.75z"/>
 <path d="m11.5 13.75h-3c-0.41 0-0.75-0.34-0.75-0.75s0.34-0.75 0.75-0.75h3c0.41 0 0.75 0.34 0.75 0.75s-0.34 0.75-0.75 0.75z"/>
 <path d="m11.5 21c5.2467 0 9.5-4.2533 9.5-9.5 0-5.2467-4.2533-9.5-9.5-9.5-5.2467 0-9.5 4.2533-9.5 9.5 0 5.2467 4.2533 9.5 9.5 9.5z" opacity=".4"/>
 <path d="m21.3 22c-0.18 0-0.36-0.07-0.49-0.2l-1.86-1.86c-0.27-0.27-0.27-0.71 0-0.99 0.27-0.27 0.71-0.27 0.99 0l1.86 1.86c0.27 0.27 0.27 0.71 0 0.99-0.14 0.13-0.32 0.2-0.5 0.2z"/>
</svg>
